flaticon/music/bass-guitar.svg

<svg xmlns="http://www.w3.org/2000/svg" width="32" height="32" viewBox="0 0 24 24">
    <path d="M 23.882812 4.121094 L 23.78125 4.019531 C 24.011719 3.65625 23.96875 3.167969 23.652344 2.851562 L 21.074219 0.277344 C 20.761719 -0.0390625 20.273438 -0.0820312 19.910156 0.148438 L 19.882812 0.117188 C 19.804688 0.0429688 19.703125 0 19.597656 0 L 18.796875 0 C 18.691406 0 18.589844 0.0429688 18.515625 0.117188 L 18.117188 0.519531 C 18.039062 0.59375 18 0.695312 18 0.800781 L 18 1.601562 L 17.199219 1.601562 C 17.09375 1.601562 16.988281 1.644531 16.914062 1.71875 L 16.515625 2.117188 C 16.441406 2.195312 16.398438 2.296875 16.398438 2.402344 L 16.398438 3.203125 C 16.398438 3.308594 16.441406 3.410156 16.515625 3.484375 L 16.539062 3.511719 C 16.265625 3.914062 16.496094 4.515625 16.738281 4.84375 C 16.75 4.871094 16.761719 4.902344 16.765625 4.925781 L 15.859375 5.808594 L 13.582031 8.03125 C 13.394531 7.902344 13.210938 7.792969 13.03125 7.699219 C 11.398438 6.855469 9.972656 6.808594 9.015625 7.566406 C 8.847656 7.671875 8.066406 8.222656 7.328125 9.640625 C 6.789062 10.679688 5.511719 10.800781 5.136719 10.8125 C 4.964844 10.816406 4.804688 10.839844 4.648438 10.871094 C 3.8125 11.058594 1.765625 11.628906 0.863281 12.875 L 0.828125 12.921875 C -0.566406 14.875 -0.15625 18.015625 1.742188 19.914062 C 2.089844 20.261719 2.53125 20.707031 3.078125 21.265625 C 3.632812 21.808594 4.078125 22.25 4.425781 22.597656 C 5.355469 23.527344 6.535156 24 7.757812 24 C 8.804688 24 9.882812 23.652344 10.863281 22.953125 L 10.90625 22.921875 C 12.152344 22.015625 12.722656 19.96875 12.910156 19.132812 C 12.945312 18.976562 12.964844 18.820312 12.96875 18.648438 C 12.984375 18.164062 13.132812 16.976562 14.140625 16.453125 C 15.558594 15.714844 16.109375 14.9375 16.21875 14.765625 C 16.972656 13.808594 16.925781 12.386719 16.085938 10.753906 C 16.003906 10.59375 15.90625 10.433594 15.804688 10.277344 L 16.664062 9.441406 L 18.09375 8.042969 C 18.097656 8.042969 18.097656 8.042969 18.097656 8.042969 L 19.023438 7.140625 C 19.050781 7.167969 19.078125 7.1875 19.113281 7.207031 C 19.449219 7.386719 20.039062 7.625 20.417969 7.386719 L 20.515625 7.488281 C 20.589844 7.5625 20.691406 7.605469 20.800781 7.605469 L 21.597656 7.605469 C 21.707031 7.605469 21.808594 7.5625 21.882812 7.488281 L 22.28125 7.085938 C 22.359375 7.011719 22.398438 6.910156 22.398438 6.804688 L 22.398438 6.003906 L 23.199219 6.003906 C 23.304688 6.003906 23.40625 5.960938 23.484375 5.886719 L 23.882812 5.484375 C 23.957031 5.410156 24 5.308594 24 5.203125 L 24 4.402344 C 24 4.296875 23.957031 4.195312 23.882812 4.121094 Z M 18.796875 0.96875 L 18.964844 0.800781 L 19.433594 0.800781 L 19.597656 0.96875 L 19.597656 1.4375 L 19.433594 1.601562 L 18.964844 1.601562 L 18.796875 1.4375 Z M 17.199219 2.566406 L 17.363281 2.402344 L 17.832031 2.402344 L 18 2.566406 L 18 3.035156 L 17.832031 3.203125 L 17.363281 3.203125 L 17.199219 3.035156 Z M 16.382812 8.59375 L 15.28125 7.492188 L 16.140625 6.652344 L 17.242188 7.757812 Z M 13.515625 11.386719 L 12.414062 10.285156 L 13.273438 9.445312 L 14.375 10.550781 Z M 10.722656 14.082031 C 10.664062 13.980469 10.597656 13.886719 10.53125 13.792969 C 10.519531 13.777344 10.507812 13.761719 10.496094 13.75 C 10.429688 13.660156 10.359375 13.578125 10.285156 13.496094 C 10.273438 13.484375 10.261719 13.46875 10.25 13.457031 C 10.074219 13.273438 9.882812 13.109375 9.667969 12.96875 C 9.667969 12.96875 9.664062 12.964844 9.660156 12.964844 L 10.40625 12.238281 L 11.511719 13.339844 L 10.734375 14.097656 C 10.730469 14.09375 10.726562 14.085938 10.722656 14.082031 Z M 12.082031 12.78125 L 10.980469 11.679688 L 11.839844 10.84375 L 12.941406 11.945312 Z M 14.949219 9.992188 L 13.847656 8.886719 L 14.707031 8.050781 L 15.808594 9.152344 Z M 15.578125 14.28125 L 15.542969 14.332031 C 15.539062 14.339844 15.109375 15.050781 13.769531 15.742188 C 12.347656 16.484375 12.1875 18.132812 12.167969 18.621094 C 12.164062 18.742188 12.152344 18.851562 12.128906 18.957031 C 12 19.542969 11.492188 21.507812 10.433594 22.277344 L 10.398438 22.304688 C 8.578125 23.601562 6.457031 23.496094 4.992188 22.03125 C 4.640625 21.683594 4.195312 21.238281 3.648438 20.699219 C 3.101562 20.144531 2.660156 19.699219 2.3125 19.351562 C 0.882812 17.921875 0.160156 15.234375 1.480469 13.382812 L 1.507812 13.347656 C 2.273438 12.292969 4.242188 11.785156 4.824219 11.652344 C 4.929688 11.628906 5.039062 11.617188 5.160156 11.613281 C 5.648438 11.597656 7.300781 11.433594 8.039062 10.011719 C 8.734375 8.675781 9.441406 8.242188 9.445312 8.242188 L 9.5 8.203125 C 10.4375 7.449219 11.886719 8.007812 12.664062 8.410156 C 12.773438 8.464844 12.882812 8.53125 12.996094 8.601562 L 8.898438 12.589844 C 8.550781 12.472656 8.183594 12.40625 7.796875 12.40625 C 5.921875 12.40625 4.394531 13.929688 4.394531 15.804688 L 5.195312 15.804688 C 5.195312 14.371094 6.363281 13.203125 7.796875 13.203125 C 8.183594 13.203125 8.550781 13.292969 8.878906 13.445312 C 8.941406 13.472656 9 13.5 9.058594 13.535156 C 9.078125 13.546875 9.097656 13.558594 9.117188 13.570312 C 9.171875 13.601562 9.226562 13.636719 9.28125 13.671875 C 9.296875 13.683594 9.3125 13.695312 9.328125 13.707031 C 9.382812 13.746094 9.4375 13.789062 9.488281 13.835938 C 9.5 13.84375 9.511719 13.855469 9.519531 13.863281 C 9.578125 13.914062 9.628906 13.964844 9.679688 14.015625 C 9.6875 14.023438 9.695312 14.03125 9.699219 14.039062 C 9.753906 14.097656 9.804688 14.15625 9.851562 14.21875 C 9.855469 14.222656 9.859375 14.226562 9.863281 14.234375 C 9.914062 14.296875 9.960938 14.363281 10.003906 14.433594 C 10.003906 14.4375 10.007812 14.441406 10.011719 14.445312 C 10.054688 14.515625 10.09375 14.589844 10.132812 14.664062 C 10.132812 14.667969 10.132812 14.671875 10.136719 14.675781 C 10.171875 14.75 10.207031 14.828125 10.234375 14.90625 C 10.339844 15.1875 10.398438 15.488281 10.398438 15.804688 C 10.398438 17.238281 9.230469 18.40625 7.796875 18.40625 L 7.796875 19.207031 C 9.671875 19.207031 11.199219 17.679688 11.199219 15.804688 C 11.199219 15.488281 11.152344 15.179688 11.070312 14.890625 L 13.796875 12.230469 L 15.21875 10.847656 C 15.273438 10.9375 15.328125 11.027344 15.375 11.117188 C 15.773438 11.898438 16.335938 13.347656 15.578125 14.28125 Z M 18.464844 6.566406 L 17.816406 7.199219 L 16.714844 6.097656 L 17.359375 5.46875 C 17.699219 5.125 17.558594 4.648438 17.417969 4.421875 C 17.410156 4.410156 17.402344 4.394531 17.390625 4.382812 C 17.300781 4.265625 17.238281 4.105469 17.21875 4.003906 L 18 4.003906 C 18.105469 4.003906 18.207031 3.960938 18.28125 3.886719 L 18.679688 3.484375 C 18.757812 3.410156 18.796875 3.308594 18.796875 3.203125 L 18.796875 2.402344 L 19.597656 2.402344 C 19.703125 2.402344 19.808594 2.359375 19.882812 2.285156 L 20.28125 1.886719 C 20.355469 1.808594 20.398438 1.707031 20.398438 1.601562 L 20.398438 0.800781 C 20.433594 0.800781 20.46875 0.800781 20.511719 0.84375 L 23.085938 3.417969 C 23.121094 3.453125 23.128906 3.496094 23.128906 3.515625 C 23.128906 3.535156 23.125 3.570312 23.097656 3.601562 L 22.398438 3.601562 C 22.292969 3.601562 22.191406 3.644531 22.117188 3.71875 L 21.714844 4.121094 C 21.640625 4.195312 21.597656 4.296875 21.597656 4.402344 L 21.597656 5.101562 L 21.5 5.203125 L 20.800781 5.203125 C 20.691406 5.203125 20.589844 5.246094 20.515625 5.320312 L 20.117188 5.71875 C 20.039062 5.796875 20 5.894531 20 6.003906 L 20 6.6875 C 19.894531 6.671875 19.699219 6.605469 19.535156 6.523438 C 19.183594 6.203125 18.8125 6.21875 18.464844 6.566406 Z M 21.597656 6.636719 L 21.433594 6.804688 L 20.964844 6.804688 L 20.800781 6.636719 L 20.800781 6.167969 L 20.964844 6.003906 L 21.433594 6.003906 L 21.597656 6.167969 Z M 23.199219 5.035156 L 23.035156 5.203125 L 22.566406 5.203125 L 22.398438 5.035156 L 22.398438 4.566406 L 22.566406 4.402344 L 23.035156 4.402344 L 23.199219 4.566406 Z M 23.199219 5.035156"/>
    <path d="M 6.394531 19.46875 L 9.976562 15.886719 C 10.132812 15.730469 10.132812 15.480469 9.976562 15.324219 C 9.820312 15.167969 9.566406 15.167969 9.410156 15.324219 L 5.828125 18.902344 L 5.546875 18.621094 L 9.480469 14.6875 C 9.636719 14.53125 9.636719 14.277344 9.480469 14.121094 C 9.324219 13.964844 9.070312 13.964844 8.914062 14.121094 L 4.980469 18.054688 L 4.699219 17.773438 L 8.277344 14.191406 C 8.433594 14.035156 8.433594 13.78125 8.277344 13.625 C 8.121094 13.46875 7.871094 13.46875 7.710938 13.625 L 4.132812 17.207031 L 3.847656 16.921875 C 3.691406 16.765625 3.441406 16.765625 3.285156 16.921875 C 3.125 17.078125 3.125 17.332031 3.285156 17.488281 L 3.566406 17.773438 L 3.285156 18.054688 C 3.125 18.210938 3.125 18.464844 3.285156 18.621094 C 3.359375 18.699219 3.464844 18.738281 3.566406 18.738281 C 3.667969 18.738281 3.769531 18.699219 3.847656 18.621094 L 4.132812 18.335938 L 4.414062 18.621094 L 4.132812 18.902344 C 3.976562 19.058594 3.976562 19.3125 4.132812 19.46875 C 4.210938 19.546875 4.3125 19.585938 4.414062 19.585938 C 4.515625 19.585938 4.621094 19.546875 4.699219 19.46875 L 4.980469 19.1875 L 5.265625 19.46875 L 4.980469 19.753906 C 4.824219 19.910156 4.824219 20.160156 4.980469 20.316406 C 5.058594 20.394531 5.160156 20.433594 5.265625 20.433594 C 5.367188 20.433594 5.46875 20.394531 5.546875 20.316406 L 5.828125 20.035156 L 6.113281 20.316406 C 6.191406 20.394531 6.292969 20.433594 6.394531 20.433594 C 6.496094 20.433594 6.601562 20.394531 6.679688 20.316406 C 6.835938 20.160156 6.835938 19.910156 6.679688 19.753906 Z M 6.394531 19.46875"/>
</svg>

<svg xmlns="http://www.w3.org/2000/svg" width="32" height="32" viewBox="0 0 24 24">
    <path d="M23.883 4.121l-.102-.101a.942.942 0 0 0-.129-1.168L21.074.277A.936.936 0 0 0 19.91.148l-.027-.03A.416.416 0 0 0 19.598 0h-.801a.4.4 0 0 0-.281.117l-.399.403A.384.384 0 0 0 18 .8v.802h-.8a.409.409 0 0 0-.286.117l-.398.398a.416.416 0 0 0-.118.285v.801a.4.4 0 0 0 .118.281l.023.028c-.273.402-.043 1.004.2 1.332a.404.404 0 0 1 .027.082l-.907.883-2.277 2.222a5.288 5.288 0 0 0-.55-.332c-1.634-.844-3.06-.89-4.016-.133-.168.106-.95.657-1.688 2.075-.539 1.039-1.816 1.16-2.191 1.171a2.783 2.783 0 0 0-.489.06c-.835.187-2.882.757-3.785 2.003l-.035.047c-1.394 1.953-.984 5.094.914 6.992.348.348.79.793 1.336 1.352.555.543 1 .984 1.348 1.332.93.93 2.11 1.402 3.332 1.402 1.047 0 2.125-.348 3.105-1.047l.043-.031c1.246-.906 1.817-2.953 2.004-3.79.035-.155.055-.312.059-.484.015-.484.164-1.671 1.172-2.195 1.418-.738 1.968-1.515 2.078-1.687.754-.957.707-2.38-.133-4.012-.082-.16-.18-.32-.281-.477l.86-.836 1.429-1.398h.004l.925-.902a.383.383 0 0 0 .09.066c.336.18.926.418 1.305.18l.098.101a.402.402 0 0 0 .285.117h.797c.109 0 .21-.043.285-.117l.398-.402a.384.384 0 0 0 .117-.281v-.801h.801a.416.416 0 0 0 .285-.117l.399-.403a.4.4 0 0 0 .117-.28v-.802a.4.4 0 0 0-.117-.28zM18.797.97L18.965.8h.469l.164.168v.469l-.164.164h-.47l-.167-.165zm-1.598 1.597l.164-.164h.469l.168.164v.47l-.168.167h-.469l-.164-.168zm-.816 6.028L15.28 7.492l.86-.84 1.101 1.106zm-2.867 2.793l-1.102-1.102.86-.84 1.101 1.106zm-2.793 2.695a3.703 3.703 0 0 0-.192-.289.415.415 0 0 0-.035-.043 3.303 3.303 0 0 0-.21-.254c-.013-.012-.024-.027-.036-.039a3.327 3.327 0 0 0-.582-.488s-.004-.004-.008-.004l.746-.727 1.106 1.102-.778.758c-.004-.004-.007-.012-.011-.016zm1.359-1.3L10.98 11.68l.86-.836 1.101 1.101zm2.867-2.79l-1.101-1.105.859-.836 1.102 1.101zm.63 4.29l-.036.05c-.004.008-.434.719-1.773 1.41-1.422.742-1.582 2.39-1.602 2.88a1.8 1.8 0 0 1-.04.335c-.128.586-.636 2.55-1.694 3.32l-.036.028c-1.82 1.297-3.941 1.191-5.406-.274-.351-.347-.797-.793-1.344-1.332-.546-.554-.988-1-1.336-1.347-1.43-1.43-2.152-4.118-.832-5.97l.028-.034c.765-1.055 2.734-1.563 3.316-1.696a1.8 1.8 0 0 1 .336-.039c.488-.015 2.14-.18 2.88-1.601.694-1.336 1.401-1.77 1.405-1.77l.055-.039c.938-.754 2.387-.195 3.164.207.11.055.219.121.332.192L8.898 12.59a3.404 3.404 0 0 0-4.504 3.215h.801a2.606 2.606 0 0 1 2.602-2.602c.387 0 .754.09 1.082.242a1.542 1.542 0 0 1 .238.125c.055.032.11.067.164.102l.047.035a1.652 1.652 0 0 1 .192.156c.058.051.109.102.16.153a2.182 2.182 0 0 1 .184.219 1.822 1.822 0 0 1 .148.21c.043.07.082.145.12.22 0 .003 0 .007.005.01.035.075.07.153.097.231.106.281.164.582.164.899a2.606 2.606 0 0 1-2.601 2.601v.801a3.408 3.408 0 0 0 3.402-3.402c0-.317-.047-.625-.129-.914l2.727-2.66 1.422-1.383c.054.09.11.18.156.27.398.78.96 2.23.203 3.163zm2.886-7.716l-.649.633-1.101-1.101.644-.63c.34-.343.2-.82.059-1.046-.008-.012-.016-.027-.027-.04a1.007 1.007 0 0 1-.172-.378H18a.4.4 0 0 0 .281-.117l.399-.403a.384.384 0 0 0 .117-.28v-.802h.8c.106 0 .212-.043.286-.117l.398-.398a.416.416 0 0 0 .117-.285V.8c.036 0 .07 0 .114.043l2.574 2.574a.146.146 0 0 1 .043.098.13.13 0 0 1-.031.086h-.7a.4.4 0 0 0-.28.117l-.403.402a.4.4 0 0 0-.117.281v.7l-.098.101h-.7c-.109 0-.21.043-.284.117l-.399.399a.392.392 0 0 0-.117.285v.684a1.86 1.86 0 0 1-.465-.165c-.351-.32-.723-.304-1.07.043zm3.133.07l-.164.169h-.47l-.163-.168v-.469l.164-.164h.469l.164.164zm1.601-1.6l-.164.167h-.469l-.168-.168v-.469l.168-.164h.47l.163.164zm0 0"/>
    <path d="M6.395 19.469l3.582-3.582a.396.396 0 0 0 0-.563.4.4 0 0 0-.567 0l-3.582 3.578-.281-.28 3.933-3.934a.4.4 0 0 0-.566-.567L4.98 18.055l-.28-.282 3.577-3.582a.4.4 0 0 0-.566-.566l-3.578 3.582-.285-.285a.396.396 0 0 0-.563 0 .394.394 0 0 0 0 .566l.281.285-.28.282a.394.394 0 0 0 0 .566.396.396 0 0 0 .563 0l.284-.285.281.285-.281.281a.4.4 0 0 0 .566.567l.281-.282.286.282-.286.285a.399.399 0 1 0 .566.563l.282-.282.285.281c.078.079.18.118.282.118.101 0 .207-.04.285-.118a.396.396 0 0 0 0-.562zm0 0"/>
</svg>
